images/play-button.svg

<svg width="45" height="45" viewBox="0 0 45 45" fill="none" xmlns="http://www.w3.org/2000/svg">
<path d="M16.5498 12.9287C17.209 12.5508 18.0264 12.4893 18.6768 12.9639L31.333 20.6982C31.957 21.085 32.3438 21.7617 32.3438 22.5C32.3438 23.2383 31.957 23.915 31.333 24.3018L18.6768 32.0361C18.0264 32.4316 17.209 32.4492 16.5498 32.0713C15.8818 31.7021 15.4688 30.999 15.4688 30.2344V14.6865C15.4688 14.001 15.8818 13.2979 16.5498 12.9287ZM45 22.5C45 34.9277 34.9277 45 22.5 45C10.0723 45 0 34.9277 0 22.5C0 10.0723 10.0723 0 22.5 0C34.9277 0 45 10.0723 45 22.5ZM22.5 4.21875C12.4014 4.21875 4.21875 12.4014 4.21875 22.5C4.21875 32.5986 12.4014 40.7812 22.5 40.7812C32.5986 40.7812 40.7812 32.5986 40.7812 22.5C40.7812 12.4014 32.5986 4.21875 22.5 4.21875Z" fill="white"/>
</svg>

<svg width="45" height="45" fill="none" xmlns="http://www.w3.org/2000/svg"><path d="M16.55 12.929c.659-.378 1.476-.44 2.127.035l12.656 7.734a2.12 2.12 0 0 1 1.01 1.802 2.12 2.12 0 0 1-1.01 1.802l-12.656 7.734a2.095 2.095 0 0 1-2.127.035 2.096 2.096 0 0 1-1.081-1.837V14.686c0-.685.413-1.388 1.08-1.757ZM45 22.5C45 34.928 34.928 45 22.5 45S0 34.928 0 22.5 10.072 0 22.5 0 45 10.072 45 22.5ZM22.5 4.219C12.401 4.219 4.219 12.4 4.219 22.5c0 10.099 8.182 18.281 18.281 18.281 10.099 0 18.281-8.182 18.281-18.281 0-10.099-8.182-18.281-18.281-18.281Z" fill="#fff"/></svg>
